X:1
T:Non faciunt Sanctos
T:Daniel Friderici
T:Source : Bicinia sacra---Rostock---J.Richelius---1642. Editor : André Vierendeels (13/07/17).
T:Notes : Original clefs : G2, G2 Editorial accidentals above the staff m 18 in S 2 : "D" notated as "C" in original print (editorial suggestion)
T:Non faciunt Sanctos
T:©
T:©
T:©
C:Daniel Friderici
Z:©
%%score [ 1 2 ]
L:1/8
Q:1/4=120
M:2/2
K:F
V:1 treble nm="Soprano 1" snm="S 1"
V:2 treble nm="Soprano 2" snm="S 2"
V:1
 f8 | z8 | f8 | g3 a f2 d2 | e2 e3 ded | edef g2 g2 | e8 | z4 g4 | f2 c2 d2 e2 | f4 z2 c2 | %10
w: Non,||non,|fa- ci- unt San-|ctos, o- * * *|* * * * * pe-|ra,|aut|tu- a san cti-|o, aut|
 d3 c d2 e2 | f4 z2 c2 | d3 c d2 e2 | f4 z2 g2 | a3 g f2 d2 | a4 z2 a2 | f2 d2 a2 A2 | d4 z2 g2 | %18
w: tu- a san- cti-|o, at|tu- a san- cti-|o, aut|tu- a san- cti-|o, aut|tu- a san- cti-|o, aut|
 e2 c2 g2 G2 | c4 z2 e2 | c2 A2 e2 E2 | A4 z2 e2 | c2 A2 e2 E2 | A4 z2 c2 | A2 F2 c2 C2 | %25
w: tu- a san- cti-|o, aut|tu- a san- cti-|o, aut|tu- a san- cti-|o, aut|tu- a san- cti-|
 F4 z2 f2 | d2 B2 f2 F2 | B4 z2 f2 | d2 B2 f2 F2 | B4 z2 d2 | B2 G2 d2 D2 | G4 z2 d2 | %32
w: o, aut|tu- a san- cti-|o, aut|tu- a san- cti-|o, aut|tu- a san- cti-|o, aut|
 B2 G2 d2 D2 | G4 z2 g2 | f3 f f2 e2 | d4 z2 c2 | f3 f f2 e2 | d6 c2- | c2 =BA B4 | c8 :: %40
w: tu- a san- cti|o, aut|tu- a san- cti-|o, aut|tu- a san- cti-|o, Pa-||pa:|
 c4 c2 c2- | c2 c2 d4 | c2 B3 B A2 | G2 F4 E2 | F8 :| %45
w: Si quis e-|* rit Chri-|sti san- gui- ne|san- ctus e-|rit.|
V:2
 z8 | f8 | z4 f4 | e3 c d2 B2 | c8- | c4 c3 B | cBcB cBcd | e2 e2 c4 | z2 A2 B2 G2 | A2 F2 c4 | %10
w: |Non,|non,|fa- ci- unt San-|ctos,|_ o- *||* pe- ra,|aut tu- a|san- cti- o,|
 z4 z2 c2 | d3 c d2 e2 | f4 z2 g2 | a3 g a2 e2 | f4 z2 a2 | f2 d2 a2 A2 | d4 z2 e2 | f2 d2 g2 G2 | %18
w: aut|tu- a san- cti-|o, aut|tu- a san- cti-|o, aut|tu- a san- cti-|o, aut|tu- a san- cti-|
 c4 z2 g2 | e2 c2 g2 G2 | c4 z2 e2 | c2 A2 e2 E2 | A4 z2 c2 | A2 F2 c2 C2 | F4 z2 c2 | %25
w: o, aut|tu- a san- cti-|o, aut|tu- a san- cti-|o, aut|tu- a san- cti-|o, aut|
 A2 c2 f2 F2 | B4 z2 f2 | d2 B2 f2 F2 | B4 z2 c2 | B2 F2 d2 D2 | G4 z2 d2 | B2 G2 B2 E2 | %32
w: tu- a san- cti-|o, aut|tu- a san- cti-|o, aut|tu- a san- cti-|o, aut|tu- a san- cti-|
 G4 z2 A2 | B3 B B2 c2 | d4 z2 g2 | f3 f f2 e2 | d4 c4- | c2 =BA B2 c2 | d8 | c8 :: A4 A2 A2- | %41
w: o, aut|tu- a san- cti-|o, aut|tu- a san- cti|o, Pa-|||pa:|Si quis e-|
 A2 A2 B4 | A2 G3 G c2 | B2 A2 G4 | F8 :| %45
w: * rit Chri-|sti san- gui- ne|san- ctus e-|rit.|

